X:498
T: Schloof, Kindele, schloof (5-94), S. 149
N: P0768
O: Lothringen
S: MERKELBACH-PINCK, Angelika: Verklingende Weisen, Bd 5, Kassel 1962]
R: Schlaflied, Kinderlied]
M: 6/8
L: 1/16
K: Eb
 | G6F2E2F2 | E8-E2
E2 | G4G2F2E2F2 | E8-E2
FF | B4B2A2F2A2 | c4c2c4
G2 | A4A2G2F2E2 | B4B2B6 |
G6F2E2F2 | E12

@@@ Tune index: 8048
